X:1
T:Title
%%score [ ( 1 2 ) ( 3 4 ) ]
L:1/8
Q:1/4=120
M:4/4
K:A
V:1 treble nm="Midi_74"
V:2 treble 
V:3 bass nm="Midi_74"
V:4 bass 
V:1
 c8 | B4 A4 | G8 || F8 | E4 A4 | A4 G4 |"^William Crotch\n(1775-1847)" A8 |] %7
V:2
 E8 | G4 F4 | ^E8 || D8 | D4 C4 | F4 E4 | E8 |] %7
V:3
 C8 | E4 C4 | C8 || A,8 | G,4 A,4 | B,4 B,4 | C8 |] %7
V:4
 A,8 | E,4 F,4 | C,8 || D,8 | E,4 F,4 | D,4 E,4 | A,,8 |] %7

